assets/icons/utility/block_visitor.svg

<?xml version="1.0"?><svg xmlns="http://www.w3.org/2000/svg" width="52" height="52" viewBox="0 0 52 52"><path d="m64.7 19.1v0.4-0.4z"></path><path fill="#fff" d="m22 37c0-2.7 0.9-5.8 2.3-8.2 1.7-3 3.6-4.2 5.1-6.4 2.5-3.7 3-9 1.4-13-1.6-4.1-5.4-6.5-9.8-6.4s-8 2.8-9.4 6.9c-1.6 4.5-0.9 9.9 2.7 13.3 1.5 1.4 2.9 3.6 2.1 5.7-0.7 2-3.1 2.9-4.8 3.7-3.9 1.7-8.6 4.1-9.4 8.7-0.8 3.8 1.8 7.7 5.9 7.7h17c0.8 0 1.3-1 0.8-1.6-2.5-2.9-3.9-6.6-3.9-10.4z m24.5-8.5c-4.7-4.7-12.3-4.7-17 0s-4.7 12.3 0 17 12.3 4.7 17 0 4.7-12.3 0-17z m-14.2 2.8c2.7-2.7 6.7-3.1 9.8-1.2l-11 11c-1.9-3.1-1.5-7.1 1.2-9.8z m11.4 11.4c-2.7 2.6-6.7 3-9.8 1.3l11-11c1.8 3 1.4 7-1.2 9.7z"></path></svg>

<svg xmlns="http://www.w3.org/2000/svg" width="52" height="52" viewBox="0 0 52 52"><path d="M22,37a17.19,17.19,0,0,1,2.3-8.2c1.7-3,3.6-4.2,5.1-6.4a14.64,14.64,0,0,0,1.4-13A10,10,0,0,0,21,3a10,10,0,0,0-9.4,6.9c-1.6,4.5-.9,9.9,2.7,13.3,1.5,1.4,2.9,3.6,2.1,5.7s-3.1,2.9-4.8,3.7C7.7,34.3,3,36.7,2.2,41.3A6.22,6.22,0,0,0,8.1,49h17a1,1,0,0,0,.8-1.6A16,16,0,0,1,22,37Z" fill="#fff"/><path d="M46.5,28.5a12,12,0,1,0,0,17A12,12,0,0,0,46.5,28.5ZM32.3,31.3a7.91,7.91,0,0,1,9.8-1.2l-11,11A7.91,7.91,0,0,1,32.3,31.3ZM43.7,42.7A8.36,8.36,0,0,1,33.9,44l11-11A8.05,8.05,0,0,1,43.7,42.7Z" fill="#fff"/></svg>
